X:529
T:Marry Me Now
R:Reel
B:The Athole Collection
M:C|
L:1/8
K:A Minor
G|EA A/A/A c2 ce|dcBA GABG|AE E/E/E c2ce|dBgB A/A/A A:|
|:g|agea geae|gedg BGdB|1 agea geae|gegB A/A/A A:|2 cAdB ecae|
gegB A/A/A A||

